img/icon-01-ps.svg

<svg width="23" height="23" viewBox="0 0 23 23" fill="none" xmlns="http://www.w3.org/2000/svg">
<g clip-path="url(#clip0)">
<path d="M21.273 0.938232H0.939453V20.7688H21.273V0.938232Z" fill="#001D26"/>
<path fill-rule="evenodd" clip-rule="evenodd" d="M0.0146484 0.0114746V21.6953H22.1967V0.0114746H0.0146484ZM0.938903 0.938136H21.2725V20.7686H0.938903V0.938136Z" fill="#00C8FF"/>
<path fill-rule="evenodd" clip-rule="evenodd" d="M5.375 5.10823C5.375 5.0619 5.51364 5.01557 5.55985 5.01557C6.16062 4.96924 7.03869 4.96924 7.96292 4.96924C10.5046 4.96924 11.5213 6.35923 11.5213 8.16623C11.5213 10.5292 9.81144 11.5485 7.73186 11.5485C7.36218 11.5485 7.26974 11.5485 6.99243 11.5485V15.1161C6.99243 15.2088 6.94625 15.2088 6.90002 15.2088H5.46743C5.375 15.2088 5.375 15.1625 5.375 15.1161V5.10823ZM6.99243 10.0195C7.22349 10.0195 7.36218 10.0195 7.73186 10.0195C8.79471 10.0195 9.81144 9.64886 9.81144 8.16623C9.81144 7.00787 9.07202 6.40556 7.87048 6.40556C7.5008 6.40556 7.13105 6.40556 6.99243 6.45189V10.0195ZM14.9872 8.90752C14.2478 8.90752 14.0168 9.27822 14.0168 9.60256C14.0168 9.9269 14.2016 10.1586 15.1721 10.6682C16.6047 11.3632 17.0668 12.0582 17.0668 13.0312C17.0668 14.5138 15.9577 15.3015 14.4327 15.3015C13.647 15.3015 12.9539 15.1161 12.5379 14.8845C12.4918 14.8382 12.4455 14.7918 12.4455 14.7455V13.4018C12.4455 13.3092 12.4918 13.2629 12.5379 13.3092C13.1387 13.6798 13.7857 13.8652 14.3865 13.8652C15.1259 13.8652 15.4031 13.5408 15.4031 13.1238C15.4031 12.7995 15.1721 12.4752 14.2478 12.0118C12.9539 11.3632 12.3993 10.7609 12.3993 9.69524C12.3993 8.49057 13.3236 7.51756 14.941 7.51756C15.7266 7.51756 16.2812 7.65654 16.6047 7.79552C16.6971 7.8419 16.6971 7.93458 16.6971 7.98088V9.23185C16.6971 9.32453 16.6509 9.3709 16.5585 9.32453C16.1887 9.04657 15.588 8.90752 14.9872 8.90752Z" fill="#00C8FF"/>
</g>
<defs>
<clipPath id="clip0">
<rect width="22.7812" height="22.1484" fill="white"/>
</clipPath>
</defs>
</svg>

<svg width="23" height="23" fill="none" xmlns="http://www.w3.org/2000/svg"><g clip-path="url(#clip0)"><path d="M21.273.938H.939v19.83h20.334V.939z" fill="#001D26"/><path fill-rule="evenodd" clip-rule="evenodd" d="M.015.011v21.684h22.182V.011H.015zm.924.927h20.334v19.83H.939V.939z" fill="#00C8FF"/><path fill-rule="evenodd" clip-rule="evenodd" d="M5.375 5.108c0-.046.139-.092.185-.092.6-.047 1.479-.047 2.403-.047 2.542 0 3.558 1.39 3.558 3.197 0 2.363-1.71 3.383-3.79 3.383h-.739v3.567c0 .093-.046.093-.092.093H5.467c-.092 0-.092-.046-.092-.093V5.108zm1.617 4.912h.74c1.063 0 2.08-.371 2.08-1.854 0-1.158-.74-1.76-1.942-1.76-.37 0-.739 0-.878.046v3.568zm7.995-1.112c-.74 0-.97.37-.97.695 0 .324.185.556 1.155 1.065 1.433.695 1.895 1.39 1.895 2.363 0 1.483-1.11 2.27-2.634 2.27-.786 0-1.48-.185-1.895-.417-.046-.046-.093-.092-.093-.139v-1.343c0-.093.047-.14.093-.093.6.37 1.248.556 1.848.556.74 0 1.017-.324 1.017-.741 0-.325-.23-.649-1.155-1.112-1.294-.649-1.849-1.251-1.849-2.317 0-1.204.925-2.177 2.542-2.177.786 0 1.34.139 1.664.278.092.046.092.139.092.185v1.25c0 .094-.046.14-.139.094-.37-.278-.97-.417-1.57-.417z" fill="#00C8FF"/></g><defs><clipPath id="clip0"><path fill="#fff" d="M0 0h22.781v22.148H0z"/></clipPath></defs></svg>
